X:43
T:The Maids of Feakle
M:4/4
L:1/8
K:Am
d2 BG ABGE|DGAB c2 Bc|d2 BG ABGE|DGBG A2 Bc|
d2 BG ABGE|DGAB c2 BA|GABd egge|dBGB A4||
BddB c3 d|BddB ABGA|BddB c3 c|dBGB ABGA|
BddB c3 d|BddB ABGA|Bd d2 edBd|eaag eage |>|
